X: 15531
T: Glentaun, The
R: reel
M: 4/4
K: Gmajor
DGBG AGBG|DGBG AGEG|DGBG AGAB|dged BAGE|
DGBG AGBG|DGBG AGEG|DGBG AGAB|dged BAGA||
Bdde d2ef|g2fg eA~A2|B/c/d ef gage|dBAc BGGA|
Bdde d2ef|g2fg eA~A2|B/c/d ef gage|dBAc BAGE||

